X:4090
T:Original Lancashire Hornpipe
A:North-West
C:pub. John Ravenscroft 1705
M:3/2
N:I can't remember where I found this; but I think there were several more variations that I seem to have lost.
O:England
R:Triple Hornpipe
Z:Richard Robinson 
%%TUNEURL: http://www.leeds.ac.uk/music/Info/RRTuneBk/gettune/000008d5.html
%%ID:000008d5
K:F dorian
F4 A2c2 f4|agf=e fefg B3_d|\
c2B2 A2G2 F2=E2|F2_dc BAGF =E4|
C2=E2 G2B2 B,3_D|C2B,2 A,2G,2 A,4|\
CF=EF AFEF cFEF|_dF=EF CFEG F4::
A4 c2e2 a2ag|f2e2 d2c2 =B4|\
Gc=Bc ecBc gcBc|acBc GcBd c4|
_dB=AB G2B2 E2_A2|cAGA F2A2 _D2A2|\
BAGF =EFGE C2cB|AGFA C2=E2 F4 :|
P:Bass part (1 octave down from where it's written)
F4 F,4 A,4|B,3C F4 G3G|\
A2G2 F2G2 A2G2|A2F2 B2_d2 C2C,2|\
=E4 C4 G2E2|F2B,2 C2C,2 F,4|\
F4 F,4 A,4|B,4 C4 F,4::
B,A4G2 F3F|A2G2 F2A2 G4|E4c4 E4|F4 G4 C4|\
B,4 E2G2 E2G2|A4 _D4 B,4|\
G4 C4 E4|F2B,2 C2C,2 F,4 :|
